svgs/regular/cowbell-circle-plus.svg

<svg xmlns="http://www.w3.org/2000/svg" viewBox="0 0 576 512"><!--! Font Awesome Pro 6.6.0 by @fontawesome - https://fontawesome.com License - https://fontawesome.com/license (Commercial License) Copyright 2024 Fonticons, Inc. --><path d="M176 48l96 0 0 48-96 0 0-48zm-48-8l0 56-16 0c-21.4 0-40.3 14.2-46.2 34.8l-64 224c-4.1 14.5-1.2 30.1 7.8 42.1S32.9 416 48 416l214.6 0c-4.3-15.3-6.6-31.4-6.6-48L48 368l64-224 224 0 18.8 65.8c14.2-7 29.6-12.1 45.6-15l-18.3-64C376.3 110.2 357.4 96 336 96l-16 0 0-56c0-22.1-17.9-40-40-40L168 0c-22.1 0-40 17.9-40 40zm32 408c0 35.3 28.7 64 64 64c29.2 0 53.9-19.6 61.5-46.4c-3.8-5.7-7.2-11.5-10.3-17.6L160 448zm272 64a144 144 0 1 0 0-288 144 144 0 1 0 0 288zm16-208l0 48 48 0c8.8 0 16 7.2 16 16s-7.2 16-16 16l-48 0 0 48c0 8.8-7.2 16-16 16s-16-7.2-16-16l0-48-48 0c-8.8 0-16-7.2-16-16s7.2-16 16-16l48 0 0-48c0-8.8 7.2-16 16-16s16 7.2 16 16z"/></svg>

<svg xmlns="http://www.w3.org/2000/svg" viewBox="0 0 576 512"><!--! Font Awesome Pro 6.4.2 by @fontawesome - https://fontawesome.com License - https://fontawesome.com/license (Commercial License) Copyright 2023 Fonticons, Inc. --><path d="M176 48h96V96H176V48zm-48-8V96H112c-21.4 0-40.3 14.2-46.2 34.8l-64 224c-4.1 14.5-1.2 30.1 7.8 42.1S32.9 416 48 416H262.6c-4.3-15.3-6.6-31.4-6.6-48H48l64-224H336l18.8 65.8c14.2-7 29.6-12.1 45.6-15l-18.3-64C376.3 110.2 357.4 96 336 96H320V40c0-22.1-17.9-40-40-40H168c-22.1 0-40 17.9-40 40zm32 408c0 35.3 28.7 64 64 64c29.2 0 53.9-19.6 61.5-46.4c-3.8-5.7-7.2-11.5-10.3-17.6H160zm272 64a144 144 0 1 0 0-288 144 144 0 1 0 0 288zm16-208v48h48c8.8 0 16 7.2 16 16s-7.2 16-16 16H448v48c0 8.8-7.2 16-16 16s-16-7.2-16-16V384H368c-8.8 0-16-7.2-16-16s7.2-16 16-16h48V304c0-8.8 7.2-16 16-16s16 7.2 16 16z"/></svg>
